assets/images/pinterest-framed.svg

<?xml version="1.0" encoding="UTF-8"?>
<svg width="152px" height="144px" viewBox="0 0 152 144" version="1.1" xmlns="http://www.w3.org/2000/svg" xmlns:xlink="http://www.w3.org/1999/xlink">
    <!-- Generator: Sketch 52.6 (67491) - http://www.bohemiancoding.com/sketch -->
    <title>logosFramed/pinterest</title>
    <desc>Created with Sketch.</desc>
    <g id="logosFramed/pinterest" stroke="none" stroke-width="1" fill="none" fill-rule="evenodd">
        <g id="pinterest">
            <rect id="Rectangle-Copy" fill="#D9D9D9" x="0" y="0" width="152" height="144"></rect>
            <g id="logos/pinterest" transform="translate(54.000000, 49.000000)">
                <g id="pinterest-seeklogo.com">
                    <circle id="Oval" fill="#FFFFFF" cx="23" cy="23" r="23"></circle>
                    <path d="M0,22.9997305 C0,32.4176136 5.6633685,40.5083611 13.7674228,44.0655373 C13.7027355,42.4595343 13.7559228,40.5315402 14.167765,38.784127 C14.6099742,36.9170452 17.1272065,26.2516259 17.1272065,26.2516259 C17.1272065,26.2516259 16.3924672,24.7830802 16.3924672,22.6126942 C16.3924672,19.2042952 18.3679439,16.658732 20.8282155,16.658732 C22.9203089,16.658732 23.9310471,18.2300562 23.9310471,20.1116923 C23.9310471,22.2146973 22.5896852,25.3604003 21.8998676,28.2739534 C21.323612,30.7136836 23.1231753,32.7036683 25.53008,32.7036683 C29.8878442,32.7036683 32.8228483,27.1067354 32.8228483,20.4753698 C32.8228483,15.4345545 29.4276663,11.6615796 23.2523701,11.6615796 C16.2754911,11.6615796 11.9290472,16.8644685 11.9290472,22.6761221 C11.9290472,24.6799423 12.5198573,26.0929662 13.4452444,27.1872332 C13.8707427,27.6898054 13.9298596,27.8919483 13.7758681,28.4690887 C13.6655404,28.8922412 13.412182,29.9110415 13.3072449,30.3147883 C13.1541517,30.8973192 12.6821145,31.1055713 12.1556322,30.8904913 C8.94211351,29.5786287 7.44550217,26.0595452 7.44550217,22.1036534 C7.44550217,15.5702149 12.9557775,7.73605409 23.8836098,7.73605409 C32.6649037,7.73605409 38.4445295,14.0903491 38.4445295,20.9112798 C38.4445295,29.9336815 33.4283929,36.6741144 26.0342811,36.6741144 C23.5511893,36.6741144 21.2154406,35.3318855 20.4152953,33.8072787 C20.4152953,33.8072787 19.0800427,39.1064776 18.7972156,40.1297699 C18.3095457,41.9030573 17.3550494,43.6754464 16.4823106,45.0568461 C18.550865,45.6674075 20.7360362,46 23.0008086,46 C35.7017902,46 46,35.7025706 46,22.9997305 C46,10.2974294 35.7017902,0 23.0008086,0 C10.2985691,0 0,10.2974294 0,22.9997305 Z" id="Path" fill="#CB1F27"></path>
                </g>
            </g>
        </g>
    </g>
</svg>

<svg xmlns="http://www.w3.org/2000/svg" width="152" height="144"><title>logosFramed/pinterest</title><desc>Created with Sketch.</desc><g fill="none"><g><path fill="#D9D9D9" d="M0 0h152v144H0z"/><g><g transform="translate(54 49)"><circle cx="23" cy="23" r="23" fill="#fff"/><path fill="#CB1F27" d="M0 23c0 9.42 5.66 17.5 13.77 21.07-.07-1.6 0-3.54.4-5.3.44-1.85 2.96-12.52 2.96-12.52s-.74-1.47-.74-3.64c0-3.4 1.97-5.94 4.43-5.94 2.1 0 3.1 1.57 3.1 3.45 0 2.1-1.34 5.26-2.03 8.17-.58 2.44 1.22 4.43 3.63 4.43 4.36 0 7.3-5.6 7.3-12.22 0-5.05-3.4-8.82-9.58-8.82-6.97 0-11.32 5.2-11.32 11.02 0 2 .6 3.4 1.52 4.5.42.5.48.7.33 1.3-.1.4-.37 1.43-.47 1.83-.15.6-.62.8-1.14.6-3.22-1.32-4.7-4.84-4.7-8.8 0-6.53 5.5-14.36 16.42-14.36 8.78 0 14.56 6.35 14.56 13.17 0 9.03-5 15.77-12.4 15.77-2.5 0-4.82-1.34-5.62-2.86 0 0-1.34 5.3-1.62 6.33-.5 1.77-1.44 3.55-2.32 4.93 2.07.6 4.26.94 6.52.94 12.7 0 23-10.3 23-23S35.7 0 23 0 0 10.3 0 23z"/></g></g></g></g></svg>
